X:1
T:Flute Sonata in E flat major
T:C. P. E. Bach
T:(Attributed to J. S. Bach as BWV 1031)
%%score { 1 | 2 } { 3 | 4 }
L:1/8
Q:1/4=100
M:4/4
K:Eb
V:1 treble nm="Harp"
V:2 bass 
V:3 treble nm="Harp"
V:4 bass 
V:1
"^Allegro Moderato" z8 | z8 | z8 | z8 | z8 | z8 | z8 | z8 | Bgfe d/4e/4f/ e2 c | %9
 c/B/A/G/ A2 G/e/d/f/ ec | BA/G/ B/4A/4B/4A/4B/4A/4B/4A/4 G/F/E z2 | z4 Bbge | f=ABd e4 | %13
 d2 z2 z4 | z DFB- Be/f/ ge | c=AFA- Ad/e/ fd | BGEG- Gc/d/ ec | %17
 =A/c/f/c/ A/F/c/A/ A/F/c/A/ B/d/f/d/ | c/=e/f/c/ =A/F/_e/c/ df b2 | z B b2 z Bfd | %20
 e/f/g/a/ g/a/f/g/ e/d/e/f/ e/f/d/e/ | cc'/=a/ ff f/a/c'/a/ ff | f2 =A/B/c/d/ e/d/c/d/ e/g/f/e/ | %23
 B B2 =A B/f/g/e/ f/b/e/c/ | d/c/d/e/ fe d2 d/4c/4d/4c/4d/4c/4d/4c/4 | B2 z2 z4 | z8 | z8 | z8 | %29
 z8 | z8 | fd'c'b =a/4b/4c'/ b2 g |{g} fe/d/ e2 d/b/=a/c'/ bg |{g} fe/d/ e2 d2 z2 | z8 | %35
 Bgfe d/4e/4f/ e2 c |{c} BA/G/ A2 G/e/d/f/ ec |{c} BA/G/ A2 G2 z2 | z4 z/ B/e/d/ e/f/g/a/ | %39
 b _d2 d c/e/a/g/ a/e/c'/a/ | b/a/g/f/ e/_d/c/B/ c/e/d/c/ d/B/G/F/ | =EE/D/ E/F/G/A/ B G2 G | %42
 FA/G/ Ac/A/ B/A/G/F/ =E/G/F/E/ | FA/G/ A/B/c/A/ Fd/e/ fd | BG/F/ G/A/B/G/ Ec/d/ ec | %45
 AF/E/ F/G/A/F/ D=B/c/ dB | c c2 =B c/g/a/g/ g/c'/f/d/ | e/c'/b/a/ gf e2 e/4d/4e/4d/4e/4d/4e/4d/4 | %48
 c/g/ c'2 b- b/=a/c'/b/ a/g/f/e/ | d/f/ b2 a a/g/b/a/ g/f/e/_d/ | %50
 c/a/a/g/ g/f/c/e/ d/b/b/a/ a/g/d/f/ | e/c'/c'/b/ a/g/f/e/ d/f/f/e/ d/c/B/A/ | G z z2 z4 | z8 | %54
 z8 | z ccc cf/g/ af | z BBB Be/f/ ge | z/ F/A/F/ F/G/A- Ad/e/ fd | %58
 B/d/e/f/ g/a/b/g/ c'/_d'/c'/b/ a/g/f/e/ | d/f/b/f/ d/B/f/d/ e/g/b/g/ e/B/g/e/ | %60
 f/=a/b/f/ d/B/_a/f/ gB e2 | z E e2 z EBG | A2 z2 A/B/c/B/ A/G/F/E/ | Ff/d/ BB- B/d/f/d/ BB- | %64
 B/=A/B/c/ d/e/f/g/ a/g/f/e/ d/c/B/_A/ | G/B/c/A/ B/e/A/F/ G E2 D | E/D/E/F/ GF E2 D2 | %67
 E3 D E/B/c/A/ B/e/A/F/ | G z z2 z/ b/a/g/ f/e/d/c/ | B/g/f/e/ d/c/B/A/ G2 F2 | E4 z4 || %71
[K:Bb][M:6/8]"^Siciliano" d>ed dge | c6 | c>dc cac | c/4B/4c/4B/4c/4B/4A/G z z2 | Bd e2 c'e | %76
 ed z fbf- | fg f2 ed | c/f/a/c'/b/d'/ c'/b/a/g/f/e/ | d z z4 | f>gf fbg | e6 | e>fe ec'e | %83
 d/F/G/A/B/c/ d/f/bd | d c3 ac- | c/A/B/d/g/a/ b>ag | a>g f>=e g/f/e/d/ | ^c2 d =e/^g/a/e/f/d/ | %88
 ^c2 d =e/^g/a/e/f/d/ | ^c/d/=eA B/d/c/d/e/d/ | A/d/^c/d/=e/d/ G/B/A/G/F/=E/ | FD z4 | z6 | %93
 d>ed dge | c6 | c>dc cac | B/G/A/B/c/d/ e/f/e/d/c/B/ | A/^c/d/A/B/G/ ^F2 G | A/^c/d/A/B/G/ ^F2 G | %99
 A/G/A/B/c/d/ edc | B/d/c/B/A/G/ e/d/4c/4BA | GdB GgB | z/ B/A/B/g/B/ B/>c/B/4A/4B/4A/4B/4A/4G/ | %103
 !fermata!G6 | z6 ||[K:Eb][M:3/8]"^Allegro" z/ E/G/B/e/B/ | c/c'/b/a/g/f/ | g/E/G/B/e/B/ | %108
 c/c'/b/a/g/f/ | g/b/a/g/f/e/ | de-e/f/ | de-e/f/ | d/c/B/A/G/F/ | E2 B/G/ | E/a/g/f/e/d/ | eEE | %116
 E/a/g/f/e/d/ | ege | f b2 | z ec | d g2 | z ce- | eBe | d/e/fe | d z z | z3 | z3 | z/ F/B/c/d/e/ | %128
 f/c/=A/F/c/A/ | B/=A/G/A/B/c/ | d/=A/F/D/A/F/ | G/E/B/G/F/E/ | F/D/B/F/E/D/ | E/D/E/F/D/E/ | %134
 C c2 | g/a/g/f/e/d/ | c/f/=a/c/d/b/ | e/d/e/c'/d/b/ | c/f/=a/c/d/b/ | e/d/e/c'/d/b/ | %140
 c/f/=a/g/a/b/ | c'/b/=a/g/f/e/ | dBB | c/4B/4c/4B/4c/4B/4c/4B/4c/4B/4c/4B/4 | %144
 c/4B/4c/4B/4c/4B/4c/4B/4c/4B/4c/4B/4 | c/4B/4c/4B/4c/4B/4c/4B/4c/4B/4c/4B/4 | %146
 c/4B/4c/4B/4B/c/d/e/ | f/e/d/f/e/d/ | eg/f/e/d/ | c/B/=A/c/B/A/ | B/c/ d2- | d/=A/A/c/B/A/ | %152
 B/c/ d2- | d/=A/A/c/B/A/ | B3- | Bed | c B/4=A/4B/4A/4B/4A/4B/4A/4 | B/d/ f2- | f/c/c/e/d/c/ | %159
 d/e/ f2- | f/c/c/e/d/c/ | d/f/b/=a/g/f/ | g/f/g/=a/b/B/ | g/e/ d/4c/4d/4c/4d/4c/4d/4c/4 | B3 | %165
 z/ B,/D/F/B/F/ | G/g/f/e/d/c/ | d/B,/D/F/B/F/ | G/g/f/e/d/c/ | d/f/e/d/c/B/ | =AB-B/c/ | %171
 =AB-B/c/ | =A3 | z d2- | dGc/B/ | Aa/g/f/e/ | de-e/f/ | de-e/f/ | d z z | z/ c'/c'/b/b/a/ | %180
 a =a2 | z/ b/b/a/a/g/ | g/g/a/g/f/e/ | f/f/g/f/e/d/ | eEe | d e/4d/4e/4d/4e/4d/4e/4d/4 | z Cc- | %187
 c/e/d/c/B/=A/ | B/=A/B/c/d- | dc/B/=A/G/ | ^FG-G/=A/ | _G=G-G/=A/ | ^F/d/d/c/c/B/ | B =B2 | %194
 z/ c/c/B/B/=A/ | =A3 | B3 | =A A2 | z/ d/e/d/c/B/ | c/c/d/c/B/=A/ | B/d/d/c/c/B/ |{/B} =A2 G- | %202
 G/=A/ G/4^F/4G/4^F/4G/4^F/4G/4^F/4 | G3 | z/ E/G/B/e/B/ | c/c'/b/a/g/f/ | g/E/G/B/e/B/ | %207
 c/c'/b/a/g/f/ | e3 | z3 | z3 | z3 | z/ B/e/g/b/B/ | c/b/a/g/a/c/ | B/a/g/f/g/B/ | A/g/f/e/f/A/ | %216
 G>BA/G/ | A/e/a/g/f/e/ | dBB | c/4B/4c/4B/4 c/4B/4c/4B/4 c/4B/4c/4B/4 | %220
 c/4B/4c/4B/4 c/4B/4c/4B/4 c/4B/4c/4B/4 | c/4B/4c/4B/4 c/4B/4c/4B/4 c/4B/4c/4B/4 | %222
 c/4B/4c/4B/4B/c/d/e/ | f/e/d/e/f/d/ | z/ e/g/B/c/a/ | _d/c/d/b/c/a/ | B/e/g/B/c/a/ | %227
 _d/c/d/b/c/a/ | B/e/g/a/b/c'/ | _d'/c'/b/d'/c'/b/ | c'/b/a/g/f/e/ | d/e/f/a/g/f/ | g/a/ b2- | %233
 b/f/f/a/g/f/ | g/a/ b2- | b/f/f/a/g/f/ | g/a/a/b/b/c'/ | c'/d/d/e/e/B/ | %238
 c/>a/ g/4f/4g/4f/4g/4f/4g/4f/4 | e G2- | G/D/D/F/E/D/ | E/F/ G2- | G/D/D/F/E/D/ | E B2- | BAG | %245
 A/F/{/E} D2 | !fermata!E3 |] %247
V:2
 z8 | z8 | z8 | z8 | z8 | z8 | z8 | z8 | E,2 G,2 B,CCA, | G,E,F,B, E,F,G,A, | G,E,F,B,, E,E,, z2 | %11
 z4 E,E,E,E, | D,D,D,D, C,B,,=A,,F,, | B,,2 z2 z4 | B,B,B,B, E,E,E,E, | F,F,F,F, D,D,D,D, | %16
 E,E,E,E, C,C,C,C, | F,2 z E, D,2 z B,, | =A,,2 z F,, B,,2 z B, | G,2 z E, D,2 z B,, | %20
 E,E,E,E, E,E,E,E, | F,F,,=A,,B,, F,F,,A,,B,, | F,F,, z2 z F,,F,,F,, | B,,E,D,C, B,,E,D,C, | %24
 B,,2 z E, F,E,F,F,, | B,,2 z2 z4 | z8 | z8 | z8 | z8 | z8 | B,,2 E,2 F,G,G,E, | %32
 D,B,,C,F,, B,,C,D,E, | D,B,,C,F,, B,,2 D,F, | z8 | E,2 A,2 B,CCA, | G,E,F,B, E,F,G,A, | %37
 G,E,F,B,, E,E,, z2 | z4 E,E,, z2 | z/ E,/G,/B,/ E/B,/G,/E,/ A,A,,A,,A,, | %40
 E,E,,E,,E,, A,,A,,B,,B,, | C,2 z2 z/ =E,/G,/B,/ C/G,/E,/C,/ | F,F,,F,,F,, C,C,C,C, | %43
 F,F,, z F, B,,B,,B,, z | E,E,, z E, A,,A,,A,, z | F,D,, z D, G,,G,,G,, z | C,F,E,D, C,F,E,D, | %47
 C,2 z F, G,F,G,G,, | C,E,/D,/ E,/C,/D,/=E,/ F,F,G,=A, | B,D,/C,/ D,/B,,/C,/D,/ E,E,F,G, | %50
 A,F, z =A, B,G, z =B, | CA,/B,/ CA, B,B,,C,D, | E, z z2 z4 | z8 | z8 | A,A,A,A, F,F,F,F, | %56
 G,G,G,G, E,E,E,E, | F,F,F,F, D,D,D,D, | E,E,,E,,E,, A,,A,A,A, | B,2 z A, G,2 z E, | %60
 D,2 z B,, E,2 z _D, | C,2 z A,, G,,2 z E,, | A,,A,,A,,A,, A,,A,,A,,A,, | B,,2 D,E, B,,2 D,E, | %64
 B,,2 z2 z B,B,,B, | E,A,G,F, E,A,G,F, | E,2 z A, B,A,B,B,, | E,A,G,F, E,A,G,F, | E,2 z2 z4 | %69
 E,,F,,G,,A,, B,,2 B,,2 | E,,4 z4 ||[K:Bb][M:6/8] G,2 z G,2 z | G,2 z G,2 z | ^F,2 z F,2 z | %74
 G,2 z G,,2 z | G,2 z A,2 z | B,2 z B,,2 z | E,2 z E,2 =E, | F,2 G, A,F,A, | B,F,G, A,F,A, | %80
 B,2 z B,2 z | B,2 z B,2 z | A,2 z A,2 z | B,2 z B,,2 z | F,2 z ^F,2 z | G,2 z G,2 C | %86
 =F,2 B, G,3 | A,2 z A,2 z | A,2 z A,2 z | A,/A,,/A,/G,/F,/D,/ G,2 z | F,2 z =E,^C,A,, | %91
 D,/A,/D/C/B,/G,/ C2 z | B,2 z A,^F,D, | G,2 z G,2 z | G,2 z G,2 z | ^F,2 z F,2 z | G,2 z C,2 z | %97
 D,2 z D,2 z | D,2 z D,2 z | D,2 z ^F,,2 z | G,,A,,B,, C,D,D,, | G, z z E,2 z | ^C,2 z D,2 D,, | %103
 !fermata!G,,6 | z6 ||[K:Eb][M:3/8] E,2 G, | A,B,B,, | E,2 G, | A,B,B,, | E,2 A, | B,E/B,/G,/E,/ | %111
 B,E/B,/G,/E,/ | B,B,,B, | E,2 G, | A,B,B,, | E,2 G, | A,B,B,, | E,E,E, | D,D,D, | C,C,C, | %120
 B,,B,,B,, | A,,A,A, | G,G,G, | F,D,E, | B,,D,B,, | E,C,E, | F,=A,F, | B,B,B, | =A,A,A, | G,G,G, | %130
 F,F,F, | E,E,E, | D,D,D, | C,=A,,B,, | E,E,E, | E,E,E, | F,2 B, | =A,F,B, | F,2 B, | =A,F,B, | %140
 F,F,,F,, | F,,F,,F,, | B,,2 E, | D,B,,E, | B,,2 E, | D,B,,E, | B,,B,,B,, | B,,B,B,, | E,C,E, | %149
 F,F,,F, | B,B,,/C,/D,/E,/ | F,F,,F, | B,,B,,/C,/D,/E,/ | F,F,,F, | B,,C,D, | E,F,G, | E,F,F,, | %157
 B,,B,,/C,/D,/E,/ | F,F,,F, | B,,B,,/C,/D,/E,/ | F,F,,F, | B,,D,B,, | E,>F,G, | E,F,F,, | B,,3 | %165
 B,,2 D, | E,F,F,, | B,,2 D, | E,F,F,, | B,,2 E, | F,B,/F,/D,/B,,/ | F,B,/F,/D,/B,,/ | %172
 F,>E,D,/C,/ | _C,3 | C,/_C,/=C,/D,/E,/C,/ | F,3 | G,C/G,/E,/C,/ | G,C/G,/E,/C,/ | G,=B,G, | CC,C | %180
 F,F,,F, | B,B,,B, | E,C,C- | C =B,2 | CC,C- | C =B,2 | C>B,=A,/G,/ | ^F,3 | G,/^F,/G,/=A,/B,/G,/ | %189
 C C,2 | D,G,/D,/B,,/G,,/ | D,G,/D,/B,,/G,,/ | D,^F,D, | G,G,,G, | C,CC, | F,F,,F, | B,,G,,G,- | %197
 G, ^F,2 | G,G,,G,- | G, ^F,2 | G,G,,C, | D,C,B,, | C,D,D,, | G,,A,,/B,,/C,/D,/ | E,2 G, | %205
 A,B,B,, | E,2 G, | A,B,B,, | E,2 G, | A, F,2 | D, E,2 | C,D,B,, | E,2 G, | A, F,2 | D, E,2 | %215
 C,D,B,, | E,E,,E, | A,,A,,A,, | B,,2 E, | D,B,,E, | B,,2 E, | D,B,,E, | B,,B,B,, | B,,B,,B,, | %224
 E,2 A, | G,E,A, | E,2 A, | G,E,A, | E,E,,E, | E,E,E, | A,A,A, | B,B,,B,, | E,E,/F,/G,/A,/ | %233
 B,B,,B, | E,E,/F,/G,/A,/ | B,B,,B, | E,F,G, | A,B,C | A,B,B,, | E,E,/F,/G,/A,/ | B,B,,B,, | %241
 E,E,,/F,,/G,,/A,,/ | B,,B,,B,, | E,G,E, | A,,>B,,C, | A,,B,,B,, | !fermata!E,3 |] %247
V:3
 z/ B,/E/G/ B/G/A/F/ G/E/G/e/ B/G/A/F/ | G/E/G/B/ c/A/e/c/ B/B,/E/G/ B/G/e/B/ | %2
 A/B,/D/F/ A/E/f/A/ G/E/E/4D/4E/ G/E/B/F/ | c/e/f/4e/4d/4e/4 B/e/G/B/ c/e/f/4e/4d/4e/4 G/e/E/G/ | %4
 F/c/c/B/ A/G/F/E/ D/F/A- A/F/G/E/ | D/F/A- A/F/G/E/ D/B,/F/D/ A/F/d/A/ | %6
 f/d/a a/4g/4f/4e/4d/4c/4B/4A/4 B/e/c/A/ A/4G/4A/4G/4A/4G/4A/4G/4 | %7
 E/4g/4f/4e/4d/4c/4B/4A/4 G/4e/4d/4c/4B/4A/4G/4F/4 E/4G/4F/4E/4[I:staff +1]D/4C/4B,/4A,/4 G,/4E/4D/4C/4B,/4A,/4G,/4F,/4 | %8
 E,2[I:staff -1] z2 z4 | z8 | z4 z/ B,/E/G/ B/G/A/F/ | G/E/G/B/ G/E/A/F/ A/F/E z2 | z8 | %13
 z/ F/B/d/ f/d/e/c/ f/d/f/b/ f/d/e/c/ | d/F/B/F/ d/B/f/d/ g/a/g/f/ e/d/c/B/ | %15
 =A/C/F/C/ A/F/c/A/ f/g/f/e/ d/c/B/A/ | G/B,/E/B,/ G/E/B/G/ d/f/e/d/ c/B/=A/G/ | Fc f2 z F f2 | %18
 z Fc=A B/f/b/f/ d/B/f/d/ | e/g/b/g/ e/B/g/e/ f/=a/b/f/ d/B/_a/f/ | %20
 g/f/e/f/ e/f/d/e/ c/B/c/d/ c/d/B/c/ | =A/c/e- e/c/d/B/ A/c/e- e/c/d/B/ | %22
 =A/G/F/G/ F/G/A/B/ c/B/A/B/ c/e/d/c/ | d/f/g/e/ f/b/e/c/ d B2 =A | %24
 B/=A/B/c/ dc B2 B/4A/4B/4A/4B/4A/4B/4A/4 | B/F/B/d/ f/d/e/c/ d/B/d/b/ f/d/e/c/ | %26
 d/B/d/f/ g/e/b/g/ f/F/B/F/ d/B/f/d/ | e/F/=A/c/ e/c/c'/e/ d/B/c/4B/4c/4B/4 d/B/f/d/ | %28
 g/b/c'/4b/4a/4b/4 f/b/d/f/ e/b/c'/4b/4a/4b/4 d/b/B/d/ | c/g/g/f/ e/d/c/B/ =A/c/c/B/ A/G/F/E/ | %30
 D/4B,/4C/4D/4E/4F/4G/4=A/4 B/b/g/e/ d/B/f/B/ d/4c/4d/4c/4d/4c/4d/4c/4 | B2 z2 z4 | z8 | %33
 z4 z/ F/B/d/ f/d/e/c/ | d/B/d/b/ f/d/e/c/ d/4F/4G/4=A/4B/4c/4d/4e/4 f/d/B/_A/ | G2 z2 z4 | z8 | %37
 z4 z/ B,/E/G/ B/G/A/F/ | G/E/G/e/ B/G/A/F/ GG/F/ G/A/B/c/ | _d B2 B Ac/B/ ce/c/ | %40
 _d/c/B/A/ G/B/A/G/ A2 z2 | z/ G/c/=B/ c/d/=e/f/ g _B2 B | A/c/f/=e/ f/c/a/f/ g/f/e/d/ c/B/A/G/ | %43
 A/c/f/=e/ f/g/a/f/ d/B/f/_e/ d/c/B/A/ | G/c/e/d/ e/f/g/e/ c/A/e/d/ c/B/A/G/ | %45
 F/A/d/c/ d/e/f/d/ =B/G/d/c/ B/A/G/F/ | E/G/A/F/ G/c/F/D/ E c2 =B | %47
 c/a/g/f/ ed c2 c/4=B/4c/4B/4c/4B/4c/4B/4 | c2 z2 z4 | z8 | z8 | z8 | %52
 z/ B,/E/G/ B/G/A/F/ G/E/G/e/ B/G/A/F/ | G/E/G/B/ c/A/e/c/ B/E/G/E/ B/G/e/G/ | %54
 A/B,/D/F/ A/F/f/A/ G/E/F/4E/4F/4E/4 G/E/B/G/ | c/E/B/E/ c/A/e/c/ a/b/a/g/ f/e/d/c/ | %56
 B/D/A/D/ B/G/d/B/ g/a/g/f/ e/d/c/B/ | A/C/F/C/ A/F/c/A/ f/g/f/e/ d/c/B/A/ | %58
 G/F/G/A/ B/A/G/B/ Ae/_d/ c/B/A/G/ | FB b2 z B b2 | z Bfd e/B/e/B/ G/E/B/G/ | %61
 A/c/e/c/ A/E/c/A/ B/d/e/B/ G/E/_d/B/ | c/d/e/d/ c/B/A/G/ c/d/e/d/ c/B/A/G/ | %63
 D/F/A- A/F/G/E/ D/F/A- A/F/G/E/ | D/B,/D/E/ Fd/e/ f/e/d/c/ B/A/G/F/ | E E2 D E/B/c/A/ B/e/A/F/ | %66
 G/F/G/A/ BA G2 F2 | E/B/c/A/ B/e/A/F/ G E2 D | E/b/a/g/ f/e/d/c/ B/g/f/e/ d/c/B/A/ | %69
 G/e/d/c/ B/A/G/F/ E2 D2 | E4 z4 ||[K:Bb][M:6/8] B,/G/B/G/^F/G/ B,/G/B/G/F/G/ | %72
 A,/C/E/C/A,/C/ A,/C/E/C/A,/C/ | A,/D/A/^F/=E/F/ D/F/A/F/D/F/ | z/ A/G/^F/G/D/ B,/E/D/C/D/B,/ | %75
 G,/G/B/G/^F/G/ C/c/e/c/B/c/ | =F/c/B/A/B/F/ D/B/d/B/A/B/ | G/B/e/B/_A/B/ G/B/c/=A/B/G/ | AF z4 | %79
 z/ F/A/c/B/d/ c/B/A/G/F/E/ | D/B/d/B/A/B/ D/B/d/B/A/B/ | C/E/G/E/C/E/ C/E/G/E/C/E/ | %82
 C/F/c/A/G/A/ C/F/c/A/G/A/ | B z/ F/G/A/ B/c/d/B/F/B/- | B/G/A/=E/F/G/ A/B/c/A/D/A/- | %85
 A/^F/G/A/B/c/ d/d/g/f/=e/d/ | c/c/f/=e/d/c/ B/c/B/A/G/F/ | =E/^G/A/E/F/D/ ^C2 D | %88
 =E/^G/A/E/F/D/ ^C2 D | =EA, z4 | z2 z4 | z2 d e/g/^f/g/a/g/ | d/g/^f/g/a/g/ c/e/d/c/B/A/ | %93
 B,/G/B/G/^F/G/ B,/G/B/G/F/G/ | A,/C/E/C/A,/C/ A,/C/E/C/A,/C/ | A,/D/A/^F/=E/F/ D/A/c/A/D/A/ | %96
 G>FE/D/ Cc/B/A/G/ | ^F2 G A/^c/d/A/B/G/ | ^F2 G A/^c/d/A/B/G/ | ^F/=E/F/G/A/B/ cBA | %100
 G3- G/>A/G^F | z/ G/B/G/^F/G/ B,/G/B/G/F/G/ | z/ G/^F/G/B/G/ A/>A/GF | !fermata!G6 | z6 || %105
[K:Eb][M:3/8] z3 | z/ a/g/f/e/d/ | eEE | E/a/g/f/e/d/ | ebc' | fg-g/a/ | fg-g/a/ | f/e/d/c/B/A/ | %113
 G/E/G/B/e/B/ | c/c'/b/a/g/f/ | g/E/G/B/e/B/ | c/c'/b/a/g/f/ | g/f/e/f/g/a/ | b/f/d/B/f/d/ | %119
 e/d/c/d/e/f/ | g/d/B/G/d/B/ | c/A/e/c/B/A/ | B/G/e/B/A/G/ | A/G/A/B/G/A/ | F/c/B/A/G/F/ | %125
 G/f/e/d/c/B/ | =A/g/f/e/d/c/ | ddB | c f2 | z BG | =A d2 | z GB- | BFB | =A/B/cB | g/a/g/f/e/d/ | %135
 e/f/e/d/c/B/ | =Aff | g/4f/4g/4f/4g/4f/4g/4f/4g/4f/4g/4f/4 | %138
 g/4f/4g/4f/4g/4f/4g/4f/4g/4f/4g/4f/4 | g/4f/4g/4f/4g/4f/4g/4f/4g/4f/4g/4f/4 | %140
 g/4f/4g/4f/4c/B/c/d/ | e/d/c/e/d/c/ | z/ B/d/F/G/e/ | A/G/A/f/G/e/ | F/B/d/F/G/e/ | A/G/A/f/G/e/ | %146
 F/B/d/e/f/g/ | a/g/f/a/g/f/ | g/f/e/d/c/B/ | =A/B/c/e/d/c/ | d/e/ f2- | f/c/c/e/d/c/ | d/e/ f2- | %153
 f/c/c/e/d/c/ | d/e/e/f/f/g/ | g/=a/a/b/b/B/ | g/e/{/d} c2 | B/c/ d2- | d/=A/A/c/B/A/ | B/c/ d2- | %160
 d/=A/A/c/B/A/ | B/d/ f2- | fed | e/c/{/B} =A2 | B3 | z3 | z/ e/d/c/B/=A/ | BbB- | B/e/d/c/B/=A/ | %169
 Bfg | cd-d/e/ | cd-d/e/ | cFf- | f/a/g/f/e/d/ | e/d/e/f/g- | gf/e/d/c/ | =Bc-c/d/ | =Bc-c/d/ | %178
 =B/g/g/f/f/e/ | e =e2 | z/ f/f/e/e/d/ | d d2 | eEe | d e/4d/4e/4d/4e/4d/4e/4d/4 | z/ g/a/g/f/e/ | %185
 f/f/g/f/e/d/ | e z z | z =A2- | ADG/F/ | Ee/d/c/B/ | =AB-B/c/ | =AB-B/c/ | =A z z | %193
 z/ g/g/f/f/e/ | e _f2 | z/ f/f/e/e/d/ | d/d/e/d/c/B/ | c/c/d/c/B/=A/ | B B2 | =A A2 | %200
 G/b/b/=a/a/g/ |{/g} ^f2 g/d/ | e/c/ =A2 | G/B/c/d/e/f/ | g3 | z/ a/g/f/e/d/ | eEE | E/a/g/f/e/d/ | %208
 e/B/e/g/b/B/ | c/b/a/g/a/c/ | B/a/g/f/g/B/ | A/g/f/e/f/A/ | G z z | z3 | z3 | z3 | %216
 z/ B/e/_d/c/B/ | c/_d/c/B/A/G/ | F/B/d/F/G/e/ | A/G/A/f/G/e/ | F/B/d/F/G/e/ | A/G/A/f/G/e/ | %222
 F/B/d/e/f/g/ | a/g/f/g/a/f/ | gee | f/4e/4f/4e/4f/4e/4 f/4e/4f/4e/4f/4e/4 | %226
 f/4e/4f/4e/4f/4e/4 f/4e/4f/4e/4f/4e/4 | f/4e/4f/4e/4f/4e/4 f/4e/4f/4e/4f/4e/4 | %228
 f/4e/4f/4e/4f/4e/4f/g/a/ | b/a/g/b/a/g/ | ac'/b/a/g/ | f/e/d/f/e/d/ | e/f/ g2- | g/d/d/f/e/d/ | %234
 e/f/ g2- | g/d/d/f/e/d/ | e3- | e/>a/ [aa]g | f{/e} d2 | e B2- | B/F/F/A/G/F/ | G/A/ B2- | %242
 B/F/F/A/G/F/ | G/B/e/d/c/B/ | c/B/c/d/e/E/ | c/A/ G/4F/4G/4F/4G/4F/4G/4F/4 | !fermata!E3 |] %247
V:4
 E,E,,G,,B,, E,E,,G,,B,, | E,E,E,E, E,E,,E,,E,, | B,,B,,B,,B,, E,E,, z E, | A,,A,G,G,, F,,F,E,E,, | %4
 A,,A,,A,,A,, B,,B,B,B,, | B,,B,B,B,, B,,2 z2 | z B,,C,D, E,A,B,B,, | E,2 z2 z4 | E,2 G,2 B,CCA, | %9
 G,E,F,B, E,F,G,A, | G,E,F,B,, E,E,,G,,B,, | E,E,,G,,B,, E,E,E,E, | D,D,D,D, C,B,,=A,,F,, | %13
 B,,2 B,,D, F,B,D,F, | B,B,B,B, E,E,E,E, | F,F,F,F, D,D,D,D, | E,E,E,E, C,C,C,C, | %17
 F,2 z E, D,2 z B,, | =A,,2 z F,, B,,2 z B, | G,2 z E, D,2 z B,, | E,E,E,E, E,E,E,E, | %21
 F,F,,=A,,B,, F,F,,A,,B,, | F,F,, z2 z F,,F,,F,, | B,,E,D,C, B,,E,D,C, | B,,2 z E, F,E,F,F,, | %25
 B,,2 D,F, B,B,,D,F, | B,B,B,B, B,B,,B,,B,, | F,F,,F,,F,, B,,B,,B,,B,, | E,EDD, C,CB,B,, | %29
 E,2 C,E, F,2 F,,=A,, | B,,C,D,E, F,2 F,,2 | B,,2 E,2 F,G,G,E, | D,B,,C,F,, B,,C,D,E, | %33
 D,B,,C,F,, B,,2 D,F, | B,B,,D,F, B,B,D,D, | E,2 A,2 B,CCA, | G,E,F,B, E,F,G,A, | %37
 G,E,F,B,, E,E,,G,,B,, | E,E,,G,,B,, E,E,, z2 | z/ E,/G,/B,/ E/B,/G,/E,/ A,A,,A,,A,, | %40
 E,E,,E,,E,, A,,A,,B,,B,, | C,2 z2 z/ =E,/G,/B,/ C/G,/E,/C,/ | F,F,,F,,F,, C,C,C,C, | %43
 F,F,, z F, B,,B,,B,, z | E,E,, z E, A,,A,,A,, z | F,D,, z D, G,,G,,G,, z | C,F,E,D, C,F,E,D, | %47
 C,2 z F, G,F,G,G,, | C,E,/D,/ E,/C,/D,/=E,/ F,F,G,=A, | B,D,/C,/ D,/B,,/C,/D,/ E,E,F,G, | %50
 A,F, z =A, B,G, z =B, | CA,/B,/ CA, B,B,,C,D, | E,E,,G,,B,, E,E,,G,,B,, | E,E,E,E, E,E,,E,,E,, | %54
 B,,B,,B,,B,, E,E,, z G, | A,A,A,A, F,F,F,F, | G,G,G,G, E,E,E,E, | F,F,F,F, D,D,D,D, | %58
 E,E,,E,,E,, A,,A,A,A, | B,2 z A, G,2 z E, | D,2 z B,, E,2 z _D, | C,2 z A,, G,,2 z E,, | %62
 A,,A,,A,,A,, A,,A,,A,,A,, | B,,2 D,E, B,,2 D,E, | B,,2 z2 z B,B,,B, | E,A,G,F, E,A,G,F, | %66
 E,2 z A, B,A,B,B,, | E,A,G,F, E,A,G,F, | E,2 z2 z4 | E,,F,,G,,A,, B,,2 B,,2 | E,,4 z4 || %71
[K:Bb][M:6/8] G,2 z G,2 z | G,2 z G,2 z | ^F,2 z F,2 z | G,2 z G,,2 z | G,2 z A,2 z | %76
 B,2 z B,,2 z | E,2 z E,2 =E, | F,2 G, A,F,A, | B,F,G, A,F,A, | B,2 z B,2 z | B,2 z B,2 z | %82
 A,2 z A,2 z | B,2 z B,,2 z | F,2 z ^F,2 z | G,2 z G,2 C | =F,2 B, G,3 | A,2 z A,2 z | %88
 A,2 z A,2 z | A,/A,,/A,/G,/F,/D,/ G,2 z | F,2 z =E,^C,A,, | D,/A,/D/C/B,/G,/ C2 z | %92
 B,2 z A,^F,D, | G,2 z G,2 z | G,2 z G,2 z | ^F,2 z F,2 z | G,2 z C,2 z | D,2 z D,2 z | %98
 D,2 z D,2 z | D,2 z ^F,,2 z | G,,A,,B,, C,D,D,, | G, z z E,2 z | ^C,2 z D,2 D,, | !fermata!G,,6 | %104
 z6 ||[K:Eb][M:3/8] E,2 G, | A,B,B,, | E,2 G, | A,B,B,, | E,2 A, | B,E/B,/G,/E,/ | B,E/B,/G,/E,/ | %112
 B,B,,B, | E,2 G, | A,B,B,, | E,2 G, | A,B,B,, | E,E,E, | D,D,D, | C,C,C, | B,,B,,B,, | A,,A,A, | %122
 G,G,G, | F,D,E, | B,,D,B,, | E,C,E, | F,=A,F, | B,B,B, | =A,A,A, | G,G,G, | F,F,F, | E,E,E, | %132
 D,D,D, | C,=A,,B,, | E,E,E, | E,E,E, | F,2 B, | =A,F,B, | F,2 B, | =A,F,B, | F,F,,F,, | %141
 F,,F,,F,, | B,,2 E, | D,B,,E, | B,,2 E, | D,B,,E, | B,,B,,B,, | B,,B,B,, | E,C,E, | F,F,,F, | %150
 B,B,,/C,/D,/E,/ | F,F,,F, | B,,B,,/C,/D,/E,/ | F,F,,F, | B,,C,D, | E,F,G, | E,F,F,, | %157
 B,,B,,/C,/D,/E,/ | F,F,,F, | B,,B,,/C,/D,/E,/ | F,F,,F, | B,,D,B,, | E,>F,G, | E,F,F,, | B,,3 | %165
 B,,2 D, | E,F,F,, | B,,2 D, | E,F,F,, | B,,2 E, | F,B,/F,/D,/B,,/ | F,B,/F,/D,/B,,/ | %172
 F,>E,D,/C,/ | _C,3 | C,/_C,/=C,/D,/E,/C,/ | F,3 | G,C/G,/E,/C,/ | G,C/G,/E,/C,/ | G,=B,G, | CC,C | %180
 F,F,,F, | B,B,,B, | E,C,C- | C =B,2 | CC,C- | C =B,2 | C>B,=A,/G,/ | ^F,3 | G,/^F,/G,/=A,/B,/G,/ | %189
 C C,2 | D,G,/D,/B,,/G,,/ | D,G,/D,/B,,/G,,/ | D,^F,D, | G,G,,G, | C,CC, | F,F,,F, | B,,G,,G,- | %197
 G, ^F,2 | G,G,,G,- | G, ^F,2 | G,G,,C, | D,C,B,, | C,D,D,, | G,,A,,/B,,/C,/D,/ | E,2 G, | %205
 A,B,B,, | E,2 G, | A,B,B,, | E,2 G, | A, F,2 | D, E,2 | C,D,B,, | E,2 G, | A, F,2 | D, E,2 | %215
 C,D,B,, | E,E,,E, | A,,A,,A,, | B,,2 E, | D,B,,E, | B,,2 E, | D,B,,E, | B,,B,B,, | B,,B,,B,, | %224
 E,2 A, | G,E,A, | E,2 A, | G,E,A, | E,E,,E, | E,E,E, | A,A,A, | B,B,,B,, | E,E,/F,/G,/A,/ | %233
 B,B,,B, | E,E,/F,/G,/A,/ | B,B,,B, | E,F,G, | A,B,C | A,B,B,, | E,E,/F,/G,/A,/ | B,B,,B,, | %241
 E,E,,/F,,/G,,/A,,/ | B,,B,,B,, | E,G,E, | A,,>B,,C, | A,,B,,B,, | !fermata!E,,3 |] %247

